!!!OTL: Christus Chr. Humanitatem
**kern
*staff1
=1-
*clefF3
*k[]
*met(c|)
*M2/2
1F
2B\
2A\
1F
2C/
2D/
=2
0C
0G
=3
2F\
1C
2D/
2E/
2C/
2F\
2E/
=4
2C/
2F\
1C
2D/
2E/
2F\
2D/
=5
1C
2BB/
2E/
4D/
4E/
2F\
1C
=6
!!linebreak:original
1c
1B
1F
2B\
2F\
=7
2B\
2A\
2F\
2A\
2c\
2B\
2G\
2c\
=8
1G
1C
2F\
2F\
2D/
2A\
=9
2D/
2D/
2C/
2C/
0F
=10
2F\
2B\
1F
2BB/
2E/
2D/
2F\
=11
!!linebreak:original
1C
1c
1B
1F
=12
2B\
2F\
2B\
2A\
2F\
2B\
2c\
2B\
=13
2G\
2c\
1G
1C
2F\
2F\
=14
2D/
2A\
2D/
2D/
2C/
2C/
0F
!!linebreak:original
=15
2F\
2B\
1F
2BB/
2E/
2D/
2F\
=16
1C
1c
2A\
2A\
1c
=17
1c
2A\
2G\
2F\
2c\
2F\
2A\
=18
2c\
2F\
2C/
2D/
2C/
2F\
=19
!!linebreak:original
2C/
1F
1c
2B\
=20
2G\
2c\
1G
1C
2F\
2F\
=21
2D/
2A\
2D/
2D/
2C/
2C/
0F
=22
2F\
2B\
1F
2BB/
1E
2F\
=23
1C
0F
==
*-
!!title: @{OTL}, @{GTL}, ed. @{ENC}
!!!pag:
!!!GTL: Hymnbook D
!!!EFL: 
!!!YEM: Creative Commons CC/BY/NC/SA 4.0
!!!ENC: Marcin Konik
!!!END: 2015-0m-dd
!!!EED: Marcin Konik
!!!EEV: 
!!!ONB: Encoded in vim by Marcin Konik
!!!CharacterEncoding: utf-8
!!!RDF**kern: l=long note in original notation
!!!RDF**kern: i=editorial accidental
!!muse2ps: z14jc180F
!!!COM: Anonim
!!!CDT: [?]
!!!TXO: Polish
!!!ODT: 
!!!GTL: Hymnbook D
!!!ARL: Opactwo św. Wojciecha, Staniątki 
!!!voices:	1
